X: 3014
T: SIR DAVID DAVIDSON OF CANTRAY
C: John Lowe
Q:"Reel."
R: Reel.
%R:reel
B: James Kerr "Merry Melodies" v.3 p.4 #14
Z: 2016 John Chambers <jc:trillian.mit.edu>
M: C
L: 1/8
K: D
uA |\
d2fd (cd)Bd | AdFd EecA |\
d2fd (cd)AF | GEec d3 :|\
f |\
afdf afba | gfed cdef |
gfed cbag | fedc d2(df) |\
afdf afba | gfed cBAG |\
FAdc Bbge | cABc d3 |]

%%sep 1 1 500
%%sep 1 1 500

